!!!OTL: Meng Mamm huot mer e Man gin, S. 44
!!!id: S0075
**kern
*clefG2
*k[]
*C:
{16g
16g
=1
8e
16g
16g
8e
16g
16g
=2
8cc
8e
8e}
=3
{8g
=4
8g
8f
8d
16f
16f
=5
16a
16a
8g
8e}
=6
{16g
16g
=7
8e
8g
8e
16g
16g
=8
8cc
8g
8g}
=9
{8cc
=10
8b
8g
8a
8b
=11
8cc}
4r
==
*-
!!!minrhy: 16
!!!meters: 2/4 ]  ZZ[4
!!!cut: Meng Mamm huot mer e Man gin, S. 44
!!!reg: Luxemburg
!!!trd: Die Bauernhochzeit in fr&uuml;heren Zeiten
!!!rhy1: XX  X_XXX_XX  X_X_X_
!!!rhy2: X_  X_X_X_XX  XXX_X_
!!!key: S0075  16  C 2/4 ]  ZZ[4
!!!mod: HEPTATONIK IONISCH]  AMBITUS[7b
!!!kad: 335+1
!!!akz: 3+1_56_3+1_7+1_
!!!fot: 'a__b__aw_c__
!!!for: 'a__b__c__d__
!!!fok: 'Sd_Sd_S__V__
!! PHRAS[AUFTAKTIG]
!!!fkt: Liebeslied, Ehestamd, Spott
!! SPEDENER, G:
!! PR[16] 2K[13] 2G[21] 3K[2] 3G[5] 4A[0] 4Ü[0] 5A[3] 6K[0] 6G[0]
!! 7K[0] 7G[0] 8A[2] MEHR[0] SI[45] ABS[62] SR[34] SP[11]
!! ST[16] 2k[5] 2g[10] 3k[8] 3g[10] 4d[2] 4ü[0] 5d[2] 6k[3] 6g[0]
!! 7k[0] 7g[0] 8d[0] mehr[0] si[39] dm[+6] sr[15] sp[24]
!! 1F[6] 2F[45] 3F[43] 4F[0] LF[0] 2P[6] 3P[0] 4P[0] TRI[0] DF[4] AB[67]
!! TF[0] U3K[0] U3[0] U4[0] U4Ü[0] U5[3] U6K[0] U6[3] U7K[0] U7[11]
!! N1[19] N2K[0] N2[14] N3K[0] N3[19] N4[10] N4Ü[0] N5[21] N6K[0] N6[0]
!!!n7k: 0] N7[0] O1[0] O2K[0] O2[0] O3K[0] O3[0] HÖ[0
!!!RNB: symbol: &uuml;  = u umlaut (UTF-8: Ã¼)
